src/pos-icons/openid.svg

<svg height="24" viewBox="0 0 24 24" width="24" xmlns="http://www.w3.org/2000/svg"><path d="m14 2-3 1.5v16.44c-4-.44-7-2.48-7-4.94 0-2.25 2.5-4.15 6-4.78v-2.03c-5.14.69-9 3.47-9 6.81 0 3.56 4.36 6.5 10 6.94h.09l2.91-1.44zm1 6.19v2.03c1.15.21 2.18.55 3.06 1l-1.56.78 6.5 1.5-.5-4.5-2 1c-1.5-.88-3.38-1.53-5.5-1.81z"/></svg>

<?xml version="1.0" encoding="UTF-8"?><!DOCTYPE svg PUBLIC "-//W3C//DTD SVG 1.1//EN" "http://www.w3.org/Graphics/SVG/1.1/DTD/svg11.dtd"><svg xmlns="http://www.w3.org/2000/svg" xmlns:xlink="http://www.w3.org/1999/xlink" version="1.1" id="mdi-openid" width="24" height="24" viewBox="0 0 24 24"><path d="M14,2L11,3.5V19.94C7,19.5 4,17.46 4,15C4,12.75 6.5,10.85 10,10.22V8.19C4.86,8.88 1,11.66 1,15C1,18.56 5.36,21.5 11,21.94C11.03,21.94 11.06,21.94 11.09,21.94L14,20.5V2M15,8.19V10.22C16.15,10.43 17.18,10.77 18.06,11.22L16.5,12L23,13.5L22.5,9L20.5,10C19,9.12 17.12,8.47 15,8.19Z" /></svg>
